src/assets/filled/Trello.svg

<svg width="24" height="24" viewBox="0 0 24 24"  xmlns="http://www.w3.org/2000/svg">
<path d="M16.19 2H7.82001C4.18001 2 2.01001 4.17 2.01001 7.81V16.18C2.01001 19.82 4.18001 21.99 7.82001 21.99H16.19C19.83 21.99 22 19.82 22 16.18V7.81C22 4.17 19.83 2 16.19 2ZM10.77 16.49C10.77 17.16 10.22 17.71 9.54999 17.71H7.09998C6.42998 17.71 5.88 17.16 5.88 16.49V7.51001C5.88 6.84001 6.42998 6.29001 7.09998 6.29001H9.54999C10.22 6.29001 10.77 6.84001 10.77 7.51001V16.49ZM18.12 12.65C18.12 13.19 17.68 13.63 17.14 13.63H14.2C13.66 13.63 13.22 13.19 13.22 12.65V7.26001C13.22 6.72001 13.66 6.28 14.2 6.28H17.14C17.68 6.28 18.12 6.72001 18.12 7.26001V12.65Z" />
</svg>

<?xml version="1.0" encoding="UTF-8"?>
<svg width="24" height="24" viewBox="0 0 24 24" xmlns="http://www.w3.org/2000/svg">
 <path d="m16.19 2h-8.37c-3.64 0-5.81 2.17-5.81 5.81v8.37c0 3.64 2.17 5.81 5.81 5.81h8.37c3.64 0 5.81-2.17 5.81-5.81v-8.37c0-3.64-2.17-5.81-5.81-5.81zm-5.42 14.49c0 0.67-0.55 1.22-1.22 1.22h-2.45c-0.67 0-1.22-0.55-1.22-1.22v-8.98c0-0.67 0.54998-1.22 1.22-1.22h2.45c0.67001 0 1.22 0.55 1.22 1.22v8.98zm7.35-3.84c0 0.54-0.44 0.98-0.98 0.98h-2.94c-0.54 0-0.98-0.44-0.98-0.98v-5.39c0-0.54 0.44-0.98001 0.98-0.98001h2.94c0.54 0 0.98 0.44001 0.98 0.98001v5.39z"/>
</svg>
